src/assets/king-b.svg

<svg xmlns="http://www.w3.org/2000/svg" width="128" height="128" viewBox="0 0 45 45"><g stroke="#000" stroke-linejoin="round" stroke-width="1.5"><path fill="none" stroke-linecap="round" d="M22.5 11.63V6M20 8h5"/><path d="M22.5 25s4.5-7.5 3-10.5c0 0-1-2.5-3-2.5s-3 2.5-3 2.5c-1.5 3 3 10.5 3 10.5"/><path d="M11.5 37c5.5 3.5 15.5 3.5 21 0v-7s9-4.5 6-10.5c-4-6.5-13.5-3.5-16 4V27v-3.5c-3.5-7.5-13-10.5-16-4-3 6 5 10 5 10V37"/></g><g fill="none" stroke="#FFF" stroke-linecap="round" stroke-linejoin="round" stroke-width="1.5"><path stroke-linecap="square" d="M22.5 20s3.25-3 2-5.5c0 0-.5-1.5-2-1.5s-2 1.5-2 1.5c-1.25 2.5 2 5.5 2 5.5"/><path d="M32 29.5s8.5-4 6.03-9.65C34.15 14 25 18 22.5 24.5l.01 2.1-.01-2.1C20 18 9.906 14 6.997 19.85c-2.497 5.65 4.853 9 4.853 9"/><path d="M11.5 30c5.5-3 15.5-3 21 0M11.5 33.5c5.5-3 15.5-3 21 0M11.5 37c5.5-3 15.5-3 21 0"/></g></svg>

<?xml version="1.0" encoding="UTF-8" standalone="no"?>
<!--
	Király (fekete)
	Eredeti: http://en.wikipedia.org/wiki/File:Chess_kdt45.svg
	Felhasználási feltételek: Nevezd meg! - Így add tovább! (Creative Commons)
	Uray M. János
	2013-2018
-->
<!DOCTYPE svg PUBLIC "-//W3C//DTD SVG 1.1//EN" "http://www.w3.org/Graphics/SVG/1.1/DTD/svg11.dtd">
<svg xmlns="http://www.w3.org/2000/svg" version="1.1" width="128" height="128" viewBox="0 0 45 45">
	<!-- alap -->
	<g fill="#000" stroke="#000" stroke-width="1.5" stroke-linejoin="round">
		<!-- kereszt -->
		<path fill="none" stroke-linecap="round" d="M 22.5,11.63 L 22.5,6 M 20,8 L 25,8"/>
		<!-- tető -->
		<path d="M 22.5,25 C 22.5,25 27,17.5 25.5,14.5 C 25.5,14.5 24.5,12 22.5,12 C 20.5,12 19.5,14.5 19.5,14.5 C 18,17.5 22.5,25 22.5,25"/>
		<!-- test -->
		<path d="M 11.5,37 C 17,40.5 27,40.5 32.5,37 L 32.5,30 C 32.5,30 41.5,25.5 38.5,19.5 C 34.5,13 25,16 22.5,23.5 L 22.5,27 L 22.5,23.5 C 19,16 9.5,13 6.5,19.5 C 3.5,25.5 11.5,29.5 11.5,29.5 L 11.5,37"/>
	</g>
	<!-- vonalak -->
	<g fill="none" stroke="#FFF" stroke-width="1.5" stroke-linecap="round" stroke-linejoin="round">
		<!-- tető -->
		<path stroke-linecap="square" d="M 22.5,20 C 22.5,20 25.75,17 24.5,14.5 C 24.5,14.5 24,13 22.5,13 C 21,13 20.5,14.5 20.5,14.5 C 19.25,17 22.5,20 22.5,20"/>
		<!-- test -->
		<path d="M 32,29.5 C 32,29.5 40.5,25.5 38.03,19.85 C 34.15,14 25,18 22.5,24.5 L 22.51,26.6 L 22.5,24.5 C 20,18 9.906,14 6.997,19.85 C 4.5,25.5 11.85,28.85 11.85,28.85"/>
		<!-- talp -->
		<path d="M 11.5,30 C 17,27 27,27 32.5,30"/>
		<path d="M 11.5,33.5 C 17,30.5 27,30.5 32.5,33.5"/>
		<path d="M 11.5,37 C 17,34 27,34 32.5,37"/>
	</g>
</svg>
